X: 2
T: The Killavil
R: reel
M: 4/4
L: 1/8
K: Dmaj
d2fd Adfd|g2fg edBc|d2fd Adfd|g2fg e3A|d2fd Adfd|g2fg edBc|dBBA Bcde|1 f2gf edBc:|2 f2gf edAF||


Tune 1723	Setting 21687

